X:0788
T:Mr. A. Pearson's Favourite Strathspey.
M:C
L:1/8
Q:1/4=120
I: :: :|
N:upbeat added in second part
Z:Jack Campin * www.campin.me.uk * 2009
K:G
g|e>dB<G dAAg|e>dB>G B<dg>a|b/a/g/f/ ge d<BAg|e<Bg>a bB B:|
g|eBgB   dAAg|eBge   dBbg  |afg>e       d>BAg|e<Bg>a bB B:|
<end>
<start>
